;FLAVOR:RepRap
;TIME:724
;Filament used: 1.41477m
;Layer height: 0.3
;MINX:116.6
;MINY:96.6
;MINZ:0.3
;MAXX:223.4
;MAXY:203.4
;MAXZ:0.3
;LINEARADVANCEPROCESSED
;Generated with Cura_SteamEngine 5.2.1
T0
M190 S70
M104 S230
M109 S230
M82 ;absolute extrusion mode
G21 ;metric values
G90 ;absolute positioning
M82 ;set extruder to absolute mode
M106 S0 H-1; start with model the fan off
G28; Home Axis

G92 E0 ;zero the extruded length
M117 Printing...;Put printing message on LCD screen
M83 ;relative extrusion mode
G1 F1200 E-1
;LAYER_COUNT:1
M572 S0.080000 D0 ;added by LinearAdvanceSettingPlugin
;LAYER:0
M107
G0 F2400 X117.256 Y98.013 Z0.3
;TYPE:SKIRT
G1 F1200 E1
G1 F2400 X117.594 Y97.616 E0.02601
G1 X117.988 Y97.275 E0.026
G1 X118.429 Y96.998 E0.02598
G1 X118.908 Y96.792 E0.02601
G1 X119.412 Y96.662 E0.02597
G1 X120.001 Y96.601 E0.02954
G1 X219.342 Y96.6 E4.95614
G1 X220.04 Y96.61 E0.03483
G1 X220.559 Y96.658 E0.026
G1 X221.064 Y96.784 E0.02597
G1 X221.545 Y96.986 E0.02603
G1 X221.989 Y97.259 E0.026
G1 X222.386 Y97.596 E0.02598
G1 X222.726 Y97.991 E0.026
G1 X223.003 Y98.433 E0.02602
G1 X223.209 Y98.911 E0.02597
G1 X223.339 Y99.416 E0.02602
G1 X223.399 Y100.002 E0.02939
G1 X223.4 Y199.306 E4.9543
G1 X223.391 Y200.033 E0.03627
G1 X223.344 Y200.552 E0.026
G1 X223.219 Y201.058 E0.026
G1 X223.018 Y201.539 E0.02601
G1 X222.746 Y201.983 E0.02598
G1 X222.409 Y202.381 E0.02602
G1 X222.016 Y202.723 E0.02599
G1 X221.574 Y203 E0.02602
G1 X221.096 Y203.206 E0.02597
G1 X220.591 Y203.338 E0.02604
G1 X219.999 Y203.399 E0.02969
G1 X120.663 Y203.4 E4.95589
G1 X119.965 Y203.391 E0.03483
G1 X119.446 Y203.344 E0.026
G1 X118.94 Y203.219 E0.026
G1 X118.46 Y203.017 E0.02598
G1 X118.015 Y202.745 E0.02602
G1 X117.618 Y202.408 E0.02598
G1 X117.276 Y202.014 E0.02603
G1 X116.999 Y201.573 E0.02598
G1 X116.793 Y201.094 E0.02601
G1 X116.662 Y200.59 E0.02598
G1 X116.601 Y199.995 E0.02984
G1 X116.6 Y100.628 E4.95744
G1 X116.609 Y99.963 E0.03318
G1 X116.656 Y99.444 E0.026
G1 X116.782 Y98.938 E0.02602
G1 X116.984 Y98.458 E0.02598
G1 X117.256 Y98.013 E0.02602
G0 X117.652 Y98.153
G1 X117.985 Y97.795 E0.02439
G1 X118.372 Y97.495 E0.02443
G1 X118.803 Y97.262 E0.02444
G1 X119.265 Y97.103 E0.02438
G1 X119.989 Y97.001 E0.03648
G1 X219.336 Y97 E4.95644
G1 X220.034 Y97.01 E0.03483
G1 X220.521 Y97.057 E0.02441
G1 X220.994 Y97.183 E0.02442
G1 X221.441 Y97.384 E0.02445
G1 X221.849 Y97.654 E0.02441
G1 X222.207 Y97.988 E0.02443
G1 X222.506 Y98.375 E0.0244
G1 X222.739 Y98.806 E0.02444
G1 X222.898 Y99.269 E0.02442
G1 X222.999 Y99.99 E0.03632
G1 X223 Y199.301 E4.95465
G1 X222.991 Y200.028 E0.03627
G1 X222.945 Y200.515 E0.0244
G1 X222.82 Y200.989 E0.02446
G1 X222.62 Y201.436 E0.02443
G1 X222.35 Y201.844 E0.02441
G1 X222.018 Y202.203 E0.0244
G1 X221.631 Y202.503 E0.02443
G1 X221.201 Y202.736 E0.0244
G1 X220.738 Y202.897 E0.02446
G1 X220.011 Y202.999 E0.03663
G1 X120.668 Y203 E4.95624
G1 X119.97 Y202.991 E0.03483
G1 X119.483 Y202.945 E0.0244
G1 X119.01 Y202.82 E0.02441
G1 X118.563 Y202.62 E0.02443
G1 X118.155 Y202.349 E0.02444
G1 X117.796 Y202.016 E0.02443
G1 X117.496 Y201.63 E0.02439
G1 X117.263 Y201.199 E0.02444
G1 X117.103 Y200.737 E0.02439
G1 X117 Y200 E0.03713
G1 X117 Y100.633 E4.95744
G1 X117.009 Y99.968 E0.03318
G1 X117.056 Y99.481 E0.02441
G1 X117.181 Y99.008 E0.02441
G1 X117.381 Y98.561 E0.02443
G1 X117.652 Y98.153 E0.02444
G0 X118.046 Y98.304
G1 X118.374 Y97.987 E0.02276
G1 X118.752 Y97.733 E0.02272
G1 X119.169 Y97.548 E0.02276
G1 X119.611 Y97.44 E0.0227
G1 X120.044 Y97.4 E0.02169
G1 X219.33 Y97.4 E4.9534
G1 X220.028 Y97.41 E0.03483
G1 X220.482 Y97.457 E0.02277
G1 X220.92 Y97.582 E0.02272
G1 X221.329 Y97.781 E0.02269
G1 X221.698 Y98.049 E0.02275
G1 X222.014 Y98.377 E0.02272
G1 X222.268 Y98.755 E0.02272
G1 X222.452 Y99.172 E0.02274
G1 X222.561 Y99.614 E0.02271
G1 X222.6 Y100.048 E0.02174
G1 X222.6 Y199.296 E4.9515
G1 X222.591 Y200.023 E0.03627
G1 X222.545 Y200.477 E0.02277
G1 X222.421 Y200.915 E0.02271
G1 X222.223 Y201.325 E0.02272
G1 X221.956 Y201.694 E0.02272
G1 X221.628 Y202.011 E0.02276
G1 X221.25 Y202.266 E0.02275
G1 X220.834 Y202.451 E0.02271
G1 X220.392 Y202.56 E0.02271
G1 X219.955 Y202.6 E0.02189
G1 X120.673 Y202.6 E4.9532
G1 X119.975 Y202.591 E0.03483
G1 X119.522 Y202.545 E0.02272
G1 X119.084 Y202.421 E0.02271
G1 X118.674 Y202.222 E0.02274
G1 X118.305 Y201.955 E0.02272
G1 X117.988 Y201.627 E0.02276
G1 X117.734 Y201.249 E0.02272
G1 X117.549 Y200.833 E0.02271
G1 X117.44 Y200.39 E0.02276
G1 X117.4 Y199.951 E0.02199
G1 X117.4 Y100.639 E4.9547
G1 X117.409 Y99.974 E0.03318
G1 X117.455 Y99.521 E0.02272
G1 X117.58 Y99.082 E0.02277
G1 X117.779 Y98.672 E0.02274
G1 X118.046 Y98.304 E0.02268
G0 X118.44 Y98.467
G1 X118.761 Y98.198 E0.02089
G1 X119.127 Y97.994 E0.0209
G1 X119.525 Y97.863 E0.0209
G1 X120.027 Y97.8 E0.02524
G1 X219.325 Y97.8 E4.954
G1 X220.023 Y97.81 E0.03483
G1 X220.439 Y97.856 E0.02088
G1 X220.839 Y97.98 E0.02089
G1 X221.209 Y98.178 E0.02094
G1 X221.534 Y98.442 E0.02089
G1 X221.803 Y98.763 E0.02089
G1 X222.007 Y99.129 E0.0209
G1 X222.137 Y99.527 E0.02089
G1 X222.2 Y100.027 E0.02514
G1 X222.2 Y199.291 E4.9523
G1 X222.191 Y200.018 E0.03627
G1 X222.146 Y200.435 E0.02093
G1 X222.023 Y200.835 E0.02088
G1 X221.826 Y201.205 E0.02091
G1 X221.562 Y201.531 E0.02093
G1 X221.242 Y201.801 E0.02089
G1 X220.876 Y202.005 E0.0209
G1 X220.478 Y202.136 E0.0209
G1 X219.974 Y202.2 E0.02535
G1 X120.679 Y202.2 E4.95385
G1 X119.981 Y202.191 E0.03483
G1 X119.564 Y202.146 E0.02093
G1 X119.164 Y202.022 E0.02089
G1 X118.794 Y201.825 E0.02091
G1 X118.468 Y201.561 E0.02093
G1 X118.198 Y201.241 E0.02089
G1 X117.994 Y200.875 E0.0209
G1 X117.863 Y200.477 E0.0209
G1 X117.8 Y199.969 E0.02554
G1 X117.8 Y100.644 E4.95534
G1 X117.809 Y99.979 E0.03318
G1 X117.855 Y99.563 E0.02088
G1 X117.978 Y99.162 E0.02093
G1 X118.176 Y98.793 E0.02089
G1 X118.44 Y98.467 E0.02093
G0 X118.831 Y98.648
G1 X119.142 Y98.432 E0.01889
G1 X119.491 Y98.285 E0.01889
G1 X120.021 Y98.2 E0.02678
G1 X219.319 Y98.2 E4.954
G1 X220.017 Y98.21 E0.03483
G1 X220.393 Y98.255 E0.01889
G1 X220.751 Y98.379 E0.0189
G1 X221.076 Y98.574 E0.01891
G1 X221.353 Y98.833 E0.01892
G1 X221.569 Y99.144 E0.01889
G1 X221.715 Y99.494 E0.01892
G1 X221.8 Y100.021 E0.02663
G1 X221.8 Y199.286 E4.95235
G1 X221.791 Y200.013 E0.03627
G1 X221.746 Y200.39 E0.01894
G1 X221.624 Y200.748 E0.01887
G1 X221.429 Y201.073 E0.01891
G1 X221.171 Y201.35 E0.01889
G1 X220.86 Y201.567 E0.01892
G1 X220.511 Y201.714 E0.01889
G1 X219.979 Y201.8 E0.02689
G1 X120.684 Y201.8 E4.95385
G1 X119.986 Y201.791 E0.03483
G1 X119.609 Y201.746 E0.01894
G1 X119.251 Y201.624 E0.01887
G1 X118.926 Y201.429 E0.01891
G1 X118.649 Y201.17 E0.01892
G1 X118.432 Y200.859 E0.01892
G1 X118.285 Y200.51 E0.01889
G1 X118.2 Y199.977 E0.02693
G1 X118.2 Y100.65 E4.95544
G1 X118.209 Y99.985 E0.03318
G1 X118.254 Y99.608 E0.01894
G1 X118.377 Y99.25 E0.01889
G1 X118.572 Y98.925 E0.01891
G1 X118.831 Y98.648 E0.01892
G0 X119.218 Y98.854
G1 X119.514 Y98.699 E0.01667
G1 X120.021 Y98.6 E0.02577
G1 X219.313 Y98.6 E4.9537
G1 X220.011 Y98.61 E0.03483
G1 X220.342 Y98.655 E0.01667
G1 X220.653 Y98.777 E0.01667
G1 X220.927 Y98.969 E0.01669
G1 X221.147 Y99.22 E0.01665
G1 X221.301 Y99.516 E0.01665
G1 X221.4 Y100.022 E0.02572
G1 X221.4 Y199.281 E4.95205
G1 X221.391 Y200.008 E0.03627
G1 X221.347 Y200.339 E0.01666
G1 X221.226 Y200.651 E0.0167
G1 X221.034 Y200.925 E0.01669
G1 X220.783 Y201.145 E0.01665
G1 X220.487 Y201.3 E0.01667
G1 X219.979 Y201.4 E0.02583
G1 X120.689 Y201.4 E4.9536
G1 X119.991 Y201.391 E0.03483
G1 X119.66 Y201.347 E0.01666
G1 X119.349 Y201.225 E0.01667
G1 X119.075 Y201.034 E0.01666
G1 X118.854 Y200.783 E0.01668
G1 X118.7 Y200.487 E0.01665
G1 X118.6 Y199.978 E0.02588
G1 X118.6 Y100.655 E4.95524
G1 X118.609 Y99.99 E0.03318
G1 X118.653 Y99.659 E0.01666
G1 X118.775 Y99.348 E0.01667
G1 X118.967 Y99.074 E0.01669
G1 X119.218 Y98.854 E0.01665
G0 X119.359 Y99.249
G1 X119.597 Y99.098 E0.01406
G1 X120.02 Y99 E0.02166
G1 X219.307 Y99 E4.95345
G1 X220.005 Y99.01 E0.03483
G1 X220.284 Y99.054 E0.01409
G1 X220.539 Y99.174 E0.01406
G1 X220.751 Y99.36 E0.01407
G1 X220.902 Y99.598 E0.01406
G1 X221 Y100.021 E0.02166
G1 X221 Y199.276 E4.95185
G1 X220.991 Y200.003 E0.03627
G1 X220.948 Y200.282 E0.01408
G1 X220.828 Y200.538 E0.01411
G1 X220.642 Y200.75 E0.01407
G1 X220.404 Y200.902 E0.01409
G1 X219.98 Y201 E0.02171
G1 X120.694 Y201 E4.9534
G1 X119.996 Y200.991 E0.03483
G1 X119.717 Y200.948 E0.01408
G1 X119.462 Y200.828 E0.01406
G1 X119.25 Y200.642 E0.01407
G1 X119.098 Y200.404 E0.01409
G1 X119 Y199.979 E0.02176
G1 X119 Y100.66 E4.95505
G1 X119.009 Y99.995 E0.03318
G1 X119.053 Y99.717 E0.01404
G1 X119.172 Y99.461 E0.01408
G1 X119.359 Y99.249 E0.0141
G0 X119.568 Y99.602
G1 X119.742 Y99.471 E0.01087
G1 X120.028 Y99.4 E0.0147
G1 X219.302 Y99.4 E4.9528
G1 X220 Y99.41 E0.03483
G1 X220.214 Y99.453 E0.01089
G1 X220.398 Y99.569 E0.01085
G1 X220.529 Y99.744 E0.01091
G1 X220.6 Y100.029 E0.01465
G1 X220.6 Y199.271 E4.9512
G1 X220.591 Y199.998 E0.03627
G1 X220.549 Y200.212 E0.01088
G1 X220.433 Y200.397 E0.01089
G1 X220.258 Y200.528 E0.01091
G1 X219.972 Y200.6 E0.01471
G1 X120.699 Y200.6 E4.95275
G1 X120.001 Y200.591 E0.03483
G1 X119.787 Y200.549 E0.01088
G1 X119.603 Y200.432 E0.01088
G1 X119.472 Y200.258 E0.01087
G1 X119.4 Y199.971 E0.01476
G1 X119.4 Y100.666 E4.95435
G1 X119.409 Y100.001 E0.03318
G1 X119.452 Y99.787 E0.01089
G1 X119.568 Y99.602 E0.01089
G1 F1200 E-1
;MESH:Cube
G0 F2400 X121 Y199
;TYPE:WALL-INNER
G1 F1200 E1
G1 F2400 X219 Y199 E4.88924
G1 X219 Y150 E2.44462
G1 X219 Y101 E2.44462
G1 X121 Y101 E4.88924
G1 X121 Y199 E4.88924
G0 X120.6 Y199.4
G1 X219.4 Y199.4 E4.92915
G1 X219.4 Y150 E2.46458
G1 X219.4 Y100.6 E2.46458
G1 X120.6 Y100.6 E4.92915
G1 X120.6 Y199.4 E4.92915
G0 X120.2 Y199.8
;TYPE:WALL-OUTER
G1 X219.8 Y199.8 E4.96906
G1 X219.8 Y150 E2.48453
G1 X219.8 Y100.2 E2.48453
G1 X120.2 Y100.2 E4.96906
G1 X120.2 Y199.8 E4.96906
G0 X121.34 Y198.66
;TYPE:SKIN
G1 X218.66 Y198.66 E4.85531
G1 X218.66 Y150 E2.42766
G1 X218.66 Y101.34 E2.42766
G1 X121.34 Y101.34 E4.85531
G1 X121.34 Y198.66 E4.85531
G0 X121.739 Y198.107
G1 X121.891 Y198.259 E0.01072
G1 X122.457 Y198.259 E0.02824
G1 X121.739 Y197.541 E0.05066
G1 X121.739 Y196.975 E0.02824
G1 X123.023 Y198.259 E0.09059
G1 X123.588 Y198.259 E0.02819
G1 X121.739 Y196.41 E0.13046
G1 X121.739 Y195.844 E0.02824
G1 X124.154 Y198.259 E0.17039
G1 X124.72 Y198.259 E0.02824
G1 X121.739 Y195.278 E0.21033
G1 X121.739 Y194.713 E0.02819
G1 X125.285 Y198.259 E0.25019
G1 X125.851 Y198.259 E0.02824
G1 X121.739 Y194.147 E0.29012
G1 X121.739 Y193.581 E0.02824
G1 X126.417 Y198.259 E0.33006
G1 X126.982 Y198.259 E0.02819
G1 X121.739 Y193.016 E0.36992
G1 X121.739 Y192.45 E0.02824
G1 X127.548 Y198.259 E0.40986
G1 X128.114 Y198.259 E0.02824
G1 X121.739 Y191.884 E0.44979
G1 X121.739 Y191.319 E0.02819
G1 X128.679 Y198.259 E0.48965
G1 X129.245 Y198.259 E0.02824
G1 X121.739 Y190.753 E0.52959
G1 X121.739 Y190.187 E0.02824
G1 X129.811 Y198.259 E0.56952
G1 X130.377 Y198.259 E0.02824
G1 X121.739 Y189.621 E0.60946
G1 X121.739 Y189.056 E0.02819
G1 X130.942 Y198.259 E0.64932
G1 X131.508 Y198.259 E0.02824
G1 X121.739 Y188.49 E0.68926
G1 X121.739 Y187.924 E0.02824
G1 X132.074 Y198.259 E0.72919
G1 X132.639 Y198.259 E0.02819
G1 X121.739 Y187.359 E0.76905
G1 X121.739 Y186.793 E0.02824
G1 X133.205 Y198.259 E0.80899
G1 X133.771 Y198.259 E0.02824
G1 X121.739 Y186.227 E0.84892
G1 X121.739 Y185.662 E0.02819
G1 X134.336 Y198.259 E0.88879
G1 X134.902 Y198.259 E0.02824
G1 X121.739 Y185.096 E0.92872
G1 X121.739 Y184.53 E0.02824
G1 X135.468 Y198.259 E0.96866
G1 X136.033 Y198.259 E0.02819
G1 X121.739 Y183.965 E1.00852
G1 X121.739 Y183.399 E0.02824
G1 X136.599 Y198.259 E1.04845
G1 X137.165 Y198.259 E0.02824
G1 X121.739 Y182.833 E1.08839
G1 X121.739 Y182.268 E0.02819
G1 X137.73 Y198.259 E1.12825
G1 X138.296 Y198.259 E0.02824
G1 X121.739 Y181.702 E1.16819
G1 X121.739 Y181.136 E0.02824
G1 X138.862 Y198.259 E1.20812
G1 X139.428 Y198.259 E0.02824
G1 X121.739 Y180.571 E1.24802
G1 X121.739 Y180.005 E0.02824
G1 X139.993 Y198.259 E1.28792
G1 X140.559 Y198.259 E0.02824
G1 X121.739 Y179.439 E1.32785
G1 X121.739 Y178.873 E0.02824
G1 X141.125 Y198.259 E1.36779
G1 X141.69 Y198.259 E0.02819
G1 X121.739 Y178.308 E1.40765
G1 X121.739 Y177.742 E0.02824
G1 X142.256 Y198.259 E1.44759
G1 X142.822 Y198.259 E0.02824
G1 X121.739 Y177.176 E1.48752
G1 X121.739 Y176.611 E0.02819
G1 X143.387 Y198.259 E1.52738
G1 X143.953 Y198.259 E0.02824
G1 X121.739 Y176.045 E1.56732
G1 X121.739 Y175.479 E0.02824
G1 X144.519 Y198.259 E1.60725
G1 X145.084 Y198.259 E0.02819
G1 X121.739 Y174.914 E1.64712
G1 X121.739 Y174.348 E0.02824
G1 X145.65 Y198.259 E1.68705
G1 X146.216 Y198.259 E0.02824
G1 X121.739 Y173.782 E1.72698
G1 X121.739 Y173.217 E0.02819
G1 X146.781 Y198.259 E1.76685
G1 X147.347 Y198.259 E0.02824
G1 X121.739 Y172.651 E1.80678
G1 X121.739 Y172.085 E0.02824
G1 X147.913 Y198.259 E1.84672
G1 X148.478 Y198.259 E0.02819
G1 X121.739 Y171.52 E1.88658
G1 X121.739 Y170.954 E0.02824
G1 X149.044 Y198.259 E1.92652
G1 X149.61 Y198.259 E0.02824
G1 X121.739 Y170.388 E1.96645
G1 X121.739 Y169.823 E0.02819
G1 X150.176 Y198.259 E2.00635
G1 X150.741 Y198.259 E0.02819
G1 X121.739 Y169.257 E2.04625
G1 X121.739 Y168.691 E0.02824
G1 X151.307 Y198.259 E2.08618
G1 X151.873 Y198.259 E0.02824
G1 X121.739 Y168.125 E2.12612
G1 X121.739 Y167.56 E0.02819
G1 X152.438 Y198.259 E2.16598
G1 X153.004 Y198.259 E0.02824
G1 X121.739 Y166.994 E2.20591
G1 X121.739 Y166.428 E0.02824
G1 X153.57 Y198.259 E2.24585
G1 X154.135 Y198.259 E0.02819
G1 X121.739 Y165.863 E2.28571
G1 X121.739 Y165.297 E0.02824
G1 X154.701 Y198.259 E2.32565
G1 X155.267 Y198.259 E0.02824
G1 X121.739 Y164.731 E2.36558
G1 X121.739 Y164.166 E0.02819
G1 X155.832 Y198.259 E2.40545
G1 X156.398 Y198.259 E0.02824
G1 X121.739 Y163.6 E2.44538
G1 X121.739 Y163.034 E0.02824
G1 X156.964 Y198.259 E2.48531
G1 X157.529 Y198.259 E0.02819
G1 X121.739 Y162.469 E2.52518
G1 X121.739 Y161.903 E0.02824
G1 X158.095 Y198.259 E2.56511
G1 X158.661 Y198.259 E0.02824
G1 X121.739 Y161.337 E2.60505
G1 X121.739 Y160.772 E0.02819
G1 X159.227 Y198.259 E2.64495
G1 X159.792 Y198.259 E0.02819
G1 X121.739 Y160.206 E2.68484
G1 X121.739 Y159.64 E0.02824
G1 X160.358 Y198.259 E2.72478
G1 X160.924 Y198.259 E0.02824
G1 X121.739 Y159.074 E2.76471
G1 X121.739 Y158.509 E0.02819
G1 X161.489 Y198.259 E2.80458
G1 X162.055 Y198.259 E0.02824
G1 X121.739 Y157.943 E2.84451
G1 X121.739 Y157.377 E0.02824
G1 X162.621 Y198.259 E2.88445
G1 X163.186 Y198.259 E0.02819
G1 X121.739 Y156.812 E2.92431
G1 X121.739 Y156.246 E0.02824
G1 X163.752 Y198.259 E2.96424
G1 X164.318 Y198.259 E0.02824
G1 X121.739 Y155.68 E3.00418
G1 X121.739 Y155.115 E0.02819
G1 X164.883 Y198.259 E3.04404
G1 X165.449 Y198.259 E0.02824
G1 X121.739 Y154.549 E3.08398
G1 X121.739 Y153.983 E0.02824
G1 X166.015 Y198.259 E3.12391
G1 X166.58 Y198.259 E0.02819
G1 X121.739 Y153.418 E3.16377
G1 X121.739 Y152.852 E0.02824
G1 X167.146 Y198.259 E3.20371
G1 X167.712 Y198.259 E0.02824
G1 X121.739 Y152.286 E3.24364
G1 X121.739 Y151.721 E0.02819
G1 X168.277 Y198.259 E3.28351
G1 X168.843 Y198.259 E0.02824
G1 X121.739 Y151.155 E3.32344
G1 X121.739 Y150.589 E0.02824
G1 X169.409 Y198.259 E3.36338
G1 X169.975 Y198.259 E0.02824
G1 X121.739 Y150.024 E3.40328
G1 X121.739 Y149.458 E0.02824
G1 X170.54 Y198.259 E3.44317
G1 X171.106 Y198.259 E0.02824
G1 X121.739 Y148.892 E3.48311
G1 X121.739 Y148.326 E0.02824
G1 X171.672 Y198.259 E3.52304
G1 X172.237 Y198.259 E0.02819
G1 X121.739 Y147.761 E3.56291
G1 X121.739 Y147.195 E0.02824
G1 X172.803 Y198.259 E3.60284
G1 X173.369 Y198.259 E0.02824
