;FLAVOR:RepRap
;TIME:92
;Filament used: 0.209943m
;Layer height: 0.3
;MINX:156.6
;MINY:136.6
;MINZ:0.3
;MAXX:183.4
;MAXY:163.4
;MAXZ:5.1
;LINEARADVANCEPROCESSED
;Generated with Cura_SteamEngine 5.2.1
T0
M190 S70
M104 S230
M109 S230
M82 ;absolute extrusion mode

M83 ;relative extrusion mode
G1 F1200 E-1
;LAYER_COUNT:17
M572 S0.080000 D0 ;added by LinearAdvanceSettingPlugin
;LAYER:0
M107
G0 F2400 X157.594 Y137.616 Z0.3
;TYPE:SKIRT
G1 F1200 E1
G1 F2400 X157.988 Y137.275 E0.026
G1 X158.429 Y136.998 E0.02598
G1 X158.908 Y136.792 E0.02601
G1 X159.412 Y136.662 E0.02597
G1 X160.001 Y136.601 E0.02954
G1 X179.342 Y136.6 E0.96493
G1 X180.04 Y136.61 E0.03483
G1 X180.559 Y136.658 E0.026
G1 X181.064 Y136.784 E0.02597
G1 X181.545 Y136.986 E0.02603
G1 X181.989 Y137.259 E0.026
G1 X182.386 Y137.596 E0.02598
G1 X182.726 Y137.991 E0.026
G1 X183.003 Y138.433 E0.02602
G1 X183.209 Y138.911 E0.02597
G1 X183.339 Y139.416 E0.02602
G1 X183.399 Y140.002 E0.02939
G1 X183.4 Y159.306 E0.96308
G1 X183.391 Y160.033 E0.03627
G1 X183.344 Y160.552 E0.026
G1 X183.219 Y161.058 E0.026
G1 X183.018 Y161.539 E0.02601
G1 X182.746 Y161.983 E0.02598
G1 X182.409 Y162.381 E0.02602
G1 X182.016 Y162.723 E0.02599
G1 X181.574 Y163 E0.02602
G1 X181.096 Y163.206 E0.02597
G1 X180.591 Y163.338 E0.02604
G1 X179.999 Y163.399 E0.02969
G1 X160.663 Y163.4 E0.96468
G1 X159.965 Y163.391 E0.03483
G1 X159.446 Y163.344 E0.026
G1 X158.94 Y163.219 E0.026
G1 X158.46 Y163.017 E0.02598
G1 X158.015 Y162.745 E0.02602
G1 X157.618 Y162.408 E0.02598
G1 X157.276 Y162.014 E0.02603
G1 X156.999 Y161.573 E0.02598
G1 X156.793 Y161.094 E0.02601
G1 X156.662 Y160.59 E0.02598
G1 X156.601 Y159.995 E0.02984
G1 X156.6 Y140.628 E0.96622
G1 X156.609 Y139.963 E0.03318
G1 X156.656 Y139.444 E0.026
G1 X156.782 Y138.938 E0.02602
G1 X156.984 Y138.458 E0.02598
G1 X157.256 Y138.013 E0.02602
G1 X157.594 Y137.616 E0.02601
G0 X157.985 Y137.795
G1 X158.372 Y137.495 E0.02443
G1 X158.803 Y137.262 E0.02444
G1 X159.265 Y137.103 E0.02438
G1 X159.989 Y137.001 E0.03648
G1 X179.336 Y137 E0.96523
G1 X180.034 Y137.01 E0.03483
G1 X180.521 Y137.057 E0.02441
G1 X180.994 Y137.183 E0.02442
G1 X181.441 Y137.384 E0.02445
G1 X181.849 Y137.654 E0.02441
G1 X182.207 Y137.988 E0.02443
G1 X182.506 Y138.375 E0.0244
G1 X182.739 Y138.806 E0.02444
G1 X182.898 Y139.269 E0.02442
G1 X182.999 Y139.99 E0.03632
G1 X183 Y159.301 E0.96343
G1 X182.991 Y160.028 E0.03627
G1 X182.945 Y160.515 E0.0244
G1 X182.82 Y160.989 E0.02446
G1 X182.62 Y161.436 E0.02443
G1 X182.35 Y161.844 E0.02441
G1 X182.018 Y162.203 E0.0244
G1 X181.631 Y162.503 E0.02443
G1 X181.201 Y162.736 E0.0244
G1 X180.738 Y162.897 E0.02446
G1 X180.011 Y162.999 E0.03663
G1 X160.668 Y163 E0.96503
G1 X159.97 Y162.991 E0.03483
G1 X159.483 Y162.945 E0.0244
G1 X159.01 Y162.82 E0.02441
G1 X158.563 Y162.62 E0.02443
G1 X158.155 Y162.349 E0.02444
G1 X157.796 Y162.016 E0.02443
G1 X157.496 Y161.63 E0.02439
G1 X157.263 Y161.199 E0.02444
G1 X157.103 Y160.737 E0.02439
G1 X157 Y160 E0.03713
G1 X157 Y140.633 E0.96622
G1 X157.009 Y139.968 E0.03318
G1 X157.056 Y139.481 E0.02441
G1 X157.181 Y139.008 E0.02441
G1 X157.381 Y138.561 E0.02443
G1 X157.652 Y138.153 E0.02444
G1 X157.985 Y137.795 E0.02439
G0 X158.374 Y137.987
G1 X158.752 Y137.733 E0.02272
G1 X159.169 Y137.548 E0.02276
G1 X159.611 Y137.44 E0.0227
G1 X160.044 Y137.4 E0.02169
G1 X179.33 Y137.4 E0.96218
G1 X180.028 Y137.41 E0.03483
G1 X180.482 Y137.457 E0.02277
G1 X180.92 Y137.582 E0.02272
G1 X181.329 Y137.781 E0.02269
G1 X181.698 Y138.049 E0.02275
G1 X182.014 Y138.377 E0.02272
G1 X182.268 Y138.755 E0.02272
G1 X182.452 Y139.172 E0.02274
G1 X182.561 Y139.614 E0.02271
G1 X182.6 Y140.048 E0.02174
G1 X182.6 Y159.296 E0.96029
G1 X182.591 Y160.023 E0.03627
G1 X182.545 Y160.477 E0.02277
G1 X182.421 Y160.915 E0.02271
G1 X182.223 Y161.325 E0.02272
G1 X181.956 Y161.694 E0.02272
G1 X181.628 Y162.011 E0.02276
G1 X181.25 Y162.266 E0.02275
G1 X180.834 Y162.451 E0.02271
G1 X180.392 Y162.56 E0.02271
G1 X179.955 Y162.6 E0.02189
G1 X160.673 Y162.6 E0.96198
G1 X159.975 Y162.591 E0.03483
G1 X159.522 Y162.545 E0.02272
G1 X159.084 Y162.421 E0.02271
G1 X158.674 Y162.222 E0.02274
G1 X158.305 Y161.955 E0.02272
G1 X157.988 Y161.627 E0.02276
G1 X157.734 Y161.249 E0.02272
G1 X157.549 Y160.833 E0.02271
G1 X157.44 Y160.39 E0.02276
G1 X157.4 Y159.951 E0.02199
G1 X157.4 Y140.639 E0.96348
G1 X157.409 Y139.974 E0.03318
G1 X157.455 Y139.521 E0.02272
G1 X157.58 Y139.082 E0.02277
G1 X157.779 Y138.672 E0.02274
G1 X158.046 Y138.304 E0.02268
G1 X158.374 Y137.987 E0.02276
G0 X158.761 Y138.198
G1 X159.127 Y137.994 E0.0209
G1 X159.525 Y137.863 E0.0209
G1 X160.027 Y137.8 E0.02524
G1 X179.325 Y137.8 E0.96278
G1 X180.023 Y137.81 E0.03483
G1 X180.439 Y137.856 E0.02088
G1 X180.839 Y137.98 E0.02089
G1 X181.209 Y138.178 E0.02094
G1 X181.534 Y138.442 E0.02089
G1 X181.803 Y138.763 E0.02089
G1 X182.007 Y139.129 E0.0209
G1 X182.137 Y139.527 E0.02089
G1 X182.2 Y140.027 E0.02514
G1 X182.2 Y159.291 E0.96108
G1 X182.191 Y160.018 E0.03627
G1 X182.146 Y160.435 E0.02093
G1 X182.023 Y160.835 E0.02088
G1 X181.826 Y161.205 E0.02091
G1 X181.562 Y161.531 E0.02093
G1 X181.242 Y161.801 E0.02089
G1 X180.876 Y162.005 E0.0209
G1 X180.478 Y162.136 E0.0209
G1 X179.974 Y162.2 E0.02535
G1 X160.679 Y162.2 E0.96263
G1 X159.981 Y162.191 E0.03483
G1 X159.564 Y162.146 E0.02093
G1 X159.164 Y162.022 E0.02089
G1 X158.794 Y161.825 E0.02091
G1 X158.468 Y161.561 E0.02093
G1 X158.198 Y161.241 E0.02089
G1 X157.994 Y160.875 E0.0209
G1 X157.863 Y160.477 E0.0209
G1 X157.8 Y159.969 E0.02554
G1 X157.8 Y140.644 E0.96413
G1 X157.809 Y139.979 E0.03318
G1 X157.855 Y139.563 E0.02088
G1 X157.978 Y139.162 E0.02093
G1 X158.176 Y138.793 E0.02089
G1 X158.44 Y138.467 E0.02093
G1 X158.761 Y138.198 E0.02089
G0 X159.142 Y138.432
G1 X159.491 Y138.285 E0.01889
G1 X160.021 Y138.2 E0.02678
G1 X179.319 Y138.2 E0.96278
G1 X180.017 Y138.21 E0.03483
G1 X180.393 Y138.255 E0.01889
G1 X180.751 Y138.379 E0.0189
G1 X181.076 Y138.574 E0.01891
G1 X181.353 Y138.833 E0.01892
G1 X181.569 Y139.144 E0.01889
G1 X181.715 Y139.494 E0.01892
G1 X181.8 Y140.021 E0.02663
G1 X181.8 Y159.286 E0.96113
G1 X181.791 Y160.013 E0.03627
G1 X181.746 Y160.39 E0.01894
G1 X181.624 Y160.748 E0.01887
G1 X181.429 Y161.073 E0.01891
G1 X181.171 Y161.35 E0.01889
G1 X180.86 Y161.567 E0.01892
G1 X180.511 Y161.714 E0.01889
G1 X179.979 Y161.8 E0.02689
G1 X160.684 Y161.8 E0.96263
G1 X159.986 Y161.791 E0.03483
G1 X159.609 Y161.746 E0.01894
G1 X159.251 Y161.624 E0.01887
G1 X158.926 Y161.429 E0.01891
G1 X158.649 Y161.17 E0.01892
G1 X158.432 Y160.859 E0.01892
G1 X158.285 Y160.51 E0.01889
G1 X158.2 Y159.977 E0.02693
G1 X158.2 Y140.65 E0.96423
G1 X158.209 Y139.985 E0.03318
G1 X158.254 Y139.608 E0.01894
G1 X158.377 Y139.25 E0.01889
G1 X158.572 Y138.925 E0.01891
G1 X158.831 Y138.648 E0.01892
G1 X159.142 Y138.432 E0.01889
G0 X159.218 Y138.854
G1 X159.514 Y138.699 E0.01667
G1 X160.021 Y138.6 E0.02577
G1 X179.313 Y138.6 E0.96248
G1 X180.011 Y138.61 E0.03483
G1 X180.342 Y138.655 E0.01667
G1 X180.653 Y138.777 E0.01667
G1 X180.927 Y138.969 E0.01669
G1 X181.147 Y139.22 E0.01665
G1 X181.301 Y139.516 E0.01665
G1 X181.4 Y140.022 E0.02572
G1 X181.4 Y159.281 E0.96084
G1 X181.391 Y160.008 E0.03627
G1 X181.347 Y160.339 E0.01666
G1 X181.226 Y160.651 E0.0167
G1 X181.034 Y160.925 E0.01669
G1 X180.783 Y161.145 E0.01665
G1 X180.487 Y161.3 E0.01667
G1 X179.979 Y161.4 E0.02583
G1 X160.689 Y161.4 E0.96238
G1 X159.991 Y161.391 E0.03483
G1 X159.66 Y161.347 E0.01666
G1 X159.349 Y161.225 E0.01667
G1 X159.075 Y161.034 E0.01666
G1 X158.854 Y160.783 E0.01668
G1 X158.7 Y160.487 E0.01665
G1 X158.6 Y159.978 E0.02588
G1 X158.6 Y140.655 E0.96403
G1 X158.609 Y139.99 E0.03318
G1 X158.653 Y139.659 E0.01666
G1 X158.775 Y139.348 E0.01667
G1 X158.967 Y139.074 E0.01669
G1 X159.218 Y138.854 E0.01665
G0 X159.359 Y139.249
G1 X159.597 Y139.098 E0.01406
G1 X160.02 Y139 E0.02166
G1 X179.307 Y139 E0.96223
G1 X180.005 Y139.01 E0.03483
G1 X180.284 Y139.054 E0.01409
G1 X180.539 Y139.174 E0.01406
G1 X180.751 Y139.36 E0.01407
G1 X180.902 Y139.598 E0.01406
G1 X181 Y140.021 E0.02166
G1 X181 Y159.276 E0.96064
G1 X180.991 Y160.003 E0.03627
G1 X180.948 Y160.282 E0.01408
G1 X180.828 Y160.538 E0.01411
G1 X180.642 Y160.75 E0.01407
G1 X180.404 Y160.902 E0.01409
G1 X179.98 Y161 E0.02171
G1 X160.694 Y161 E0.96218
G1 X159.996 Y160.991 E0.03483
G1 X159.717 Y160.948 E0.01408
G1 X159.462 Y160.828 E0.01406
G1 X159.25 Y160.642 E0.01407
G1 X159.098 Y160.404 E0.01409
G1 X159 Y159.979 E0.02176
G1 X159 Y140.66 E0.96383
G1 X159.009 Y139.995 E0.03318
G1 X159.053 Y139.717 E0.01404
G1 X159.172 Y139.461 E0.01408
G1 X159.359 Y139.249 E0.0141
G0 X159.568 Y139.602
G1 X159.742 Y139.471 E0.01087
G1 X160.028 Y139.4 E0.0147
G1 X179.302 Y139.4 E0.96158
G1 X180 Y139.41 E0.03483
G1 X180.214 Y139.453 E0.01089
G1 X180.398 Y139.569 E0.01085
G1 X180.529 Y139.744 E0.01091
G1 X180.6 Y140.029 E0.01465
G1 X180.6 Y159.271 E0.95999
G1 X180.591 Y159.998 E0.03627
G1 X180.549 Y160.212 E0.01088
G1 X180.433 Y160.397 E0.01089
G1 X180.258 Y160.528 E0.01091
G1 X179.972 Y160.6 E0.01471
G1 X160.699 Y160.6 E0.96153
G1 X160.001 Y160.591 E0.03483
G1 X159.787 Y160.549 E0.01088
G1 X159.603 Y160.432 E0.01088
G1 X159.472 Y160.258 E0.01087
G1 X159.4 Y159.971 E0.01476
G1 X159.4 Y140.666 E0.96313
G1 X159.409 Y140.001 E0.03318
G1 X159.452 Y139.787 E0.01089
G1 X159.568 Y139.602 E0.01089
G1 F1200 E-1
;MESH:Cube
G0 F2400 X160.6 Y159.4
;TYPE:WALL-INNER
G1 F1200 E1
G1 F2400 X179.4 Y159.4 E0.93794
G1 X179.4 Y150 E0.46897
G1 X179.4 Y140.6 E0.46897
G1 X160.6 Y140.6 E0.93794
G1 X160.6 Y159.4 E0.93794
G0 X160.2 Y159.8
;TYPE:WALL-OUTER
G1 X179.8 Y159.8 E0.97785
G1 X179.8 Y150 E0.48892
G1 X179.8 Y140.2 E0.48892
G1 X160.2 Y140.2 E0.97785
G1 X160.2 Y159.8 E0.97785
G0 X160.94 Y159.06
;TYPE:SKIN
G1 X179.06 Y159.06 E0.90401
G1 X179.06 Y150 E0.45201
G1 X179.06 Y140.94 E0.45201
G1 X160.94 Y140.94 E0.90401
G1 X160.94 Y159.06 E0.90401
G0 X161.488 Y158.659
G1 X161.339 Y158.511 E0.01048
G1 X161.339 Y158.659 E0.00738
G1 X162.054 Y158.659 E0.03567
G1 X161.339 Y157.945 E0.05041
G1 X161.339 Y157.38 E0.02819
G1 X162.619 Y158.659 E0.09028
G1 X163.185 Y158.659 E0.02824
G1 X161.339 Y156.814 E0.13021
G1 X161.339 Y156.248 E0.02824
G1 X163.751 Y158.659 E0.17014
G1 X164.316 Y158.659 E0.02819
G1 X161.339 Y155.682 E0.21004
G1 X161.339 Y155.117 E0.02819
G1 X164.882 Y158.659 E0.24994
G1 X165.448 Y158.659 E0.02824
G1 X161.339 Y154.551 E0.28988
G1 X161.339 Y153.985 E0.02824
G1 X166.013 Y158.659 E0.32978
G1 X166.579 Y158.659 E0.02824
G1 X161.339 Y153.42 E0.36968
G1 X161.339 Y152.854 E0.02824
G1 X167.145 Y158.659 E0.40961
G1 X167.71 Y158.659 E0.02819
G1 X161.339 Y152.288 E0.44951
G1 X161.339 Y151.723 E0.02819
G1 X168.276 Y158.659 E0.48941
G1 X168.842 Y158.659 E0.02824
G1 X161.339 Y151.157 E0.52934
G1 X161.339 Y150.591 E0.02824
G1 X169.407 Y158.659 E0.56924
G1 X169.973 Y158.659 E0.02824
G1 X161.339 Y150.026 E0.60914
G1 X161.339 Y149.46 E0.02824
G1 X170.539 Y158.659 E0.64907
G1 X171.104 Y158.659 E0.02819
G1 X161.339 Y148.894 E0.68897
G1 X161.339 Y148.329 E0.02819
G1 X171.67 Y158.659 E0.72887
G1 X172.236 Y158.659 E0.02824
G1 X161.339 Y147.763 E0.76881
G1 X161.339 Y147.197 E0.02824
G1 X172.802 Y158.659 E0.80874
G1 X173.367 Y158.659 E0.02819
G1 X161.339 Y146.632 E0.84861
G1 X161.339 Y146.066 E0.02824
G1 X173.933 Y158.659 E0.88854
G1 X174.499 Y158.659 E0.02824
G1 X161.339 Y145.5 E0.92847
G1 X161.339 Y144.934 E0.02824
G1 X175.064 Y158.659 E0.96837
G1 X175.63 Y158.659 E0.02824
G1 X161.339 Y144.369 E1.00827
G1 X161.339 Y143.803 E0.02824
G1 X176.196 Y158.659 E1.04821
G1 X176.761 Y158.659 E0.02819
G1 X161.339 Y143.237 E1.08811
G1 X161.339 Y142.672 E0.02819
G1 X177.327 Y158.659 E1.128
G1 X177.893 Y158.659 E0.02824
G1 X161.339 Y142.106 E1.16794
G1 X161.339 Y141.54 E0.02824
G1 X178.458 Y158.659 E1.20784
G1 X178.659 Y158.659 E0.01003
G1 X178.659 Y158.295 E0.01816
G1 X161.704 Y141.34 E1.19627
G1 X162.27 Y141.34 E0.02824
G1 X178.659 Y157.729 E1.15633
G1 X178.659 Y157.163 E0.02824
G1 X162.836 Y141.34 E1.1164
G1 X163.401 Y141.34 E0.02819
G1 X178.659 Y156.597 E1.0765
G1 X178.659 Y156.032 E0.02819
G1 X163.967 Y141.34 E1.0366
G1 X164.533 Y141.34 E0.02824
G1 X178.659 Y155.466 E0.99667
G1 X178.659 Y154.9 E0.02824
G1 X165.098 Y141.34 E0.95677
G1 X165.664 Y141.34 E0.02824
G1 X178.659 Y154.335 E0.91687
G1 X178.659 Y153.769 E0.02824
G1 X166.23 Y141.34 E0.87693
G1 X166.795 Y141.34 E0.02819
G1 X178.659 Y153.203 E0.83703
G1 X178.659 Y152.638 E0.02819
G1 X167.361 Y141.34 E0.79713
G1 X167.927 Y141.34 E0.02824
G1 X178.659 Y152.072 E0.7572
G1 X178.659 Y151.506 E0.02824
G1 X168.492 Y141.34 E0.7173
G1 X169.058 Y141.34 E0.02824
G1 X178.659 Y150.941 E0.6774
G1 X178.659 Y150.375 E0.02824
G1 X169.624 Y141.34 E0.63747
G1 X170.189 Y141.34 E0.02819
G1 X178.659 Y149.809 E0.59757
G1 X178.659 Y149.244 E0.02819
G1 X170.755 Y141.34 E0.55767
G1 X171.321 Y141.34 E0.02824
G1 X178.659 Y148.678 E0.51774
G1 X178.659 Y148.112 E0.02824
G1 X171.887 Y141.34 E0.4778
G1 X172.452 Y141.34 E0.02819
G1 X178.659 Y147.547 E0.43794
G1 X178.659 Y146.981 E0.02824
G1 X173.018 Y141.34 E0.398
G1 X173.584 Y141.34 E0.02824
G1 X178.659 Y146.415 E0.35807
G1 X178.659 Y145.849 E0.02824
G1 X174.149 Y141.34 E0.31817
G1 X174.715 Y141.34 E0.02824
G1 X178.659 Y145.284 E0.27827
G1 X178.659 Y144.718 E0.02824
G1 X175.281 Y141.34 E0.23834
G1 X175.846 Y141.34 E0.02819
G1 X178.659 Y144.152 E0.19844
G1 X178.659 Y143.587 E0.02819
G1 X176.412 Y141.34 E0.15854
G1 X176.978 Y141.34 E0.02824
G1 X178.659 Y143.021 E0.1186
G1 X178.659 Y142.455 E0.02824
G1 X177.543 Y141.34 E0.0787
G1 X178.659 Y141.34 E0.05568
G0 X178.659 Y141.89
G1 X178.109 Y141.34 E0.03881
G1 F1200 E-1
;MESH:NONMESH
G0 F600 X178.109 Y141.34 Z0.6
G0 F2400 X160.6 Y159.4
;TIME_ELAPSED:53.892283
;LAYER:1
M106 S255
;TYPE:WALL-INNER
;MESH:Cube
G1 F1200 E1
G1 F4800 X179.4 Y159.4 E0.93794
G1 X179.4 Y150 E0.46897
G1 X179.4 Y140.6 E0.46897
G1 X160.6 Y140.6 E0.93794
G1 X160.6 Y159.4 E0.93794
G0 F7200 X160.2 Y159.8
;TYPE:WALL-OUTER
G1 F4800 X179.8 Y159.8 E0.97785
G1 X179.8 Y150 E0.48892
G1 X179.8 Y140.2 E0.48892
G1 X160.2 Y140.2 E0.97785
G1 X160.2 Y159.8 E0.97785
;MESH:NONMESH
G0 F600 X160.2 Y159.8 Z0.9
G0 F7200 X160.6 Y159.4
;TIME_ELAPSED:56.373645
;LAYER:2
;TYPE:WALL-INNER
;MESH:Cube
G1 F4800 X179.4 Y159.4 E0.93794
G1 X179.4 Y150 E0.46897
G1 X179.4 Y140.6 E0.46897
G1 X160.6 Y140.6 E0.93794
G1 X160.6 Y159.4 E0.93794
G0 F7200 X160.2 Y159.8
;TYPE:WALL-OUTER
G1 F4800 X179.8 Y159.8 E0.97785
G1 X179.8 Y150 E0.48892
G1 X179.8 Y140.2 E0.48892
G1 X160.2 Y140.2 E0.97785
G1 X160.2 Y159.8 E0.97785
;MESH:NONMESH
G0 F600 X160.2 Y159.8 Z1.2
G0 F7200 X160.6 Y159.4
;TIME_ELAPSED:58.811161
;LAYER:3
;TYPE:WALL-INNER
;MESH:Cube
G1 F4800 X179.4 Y159.4 E0.93794
G1 X179.4 Y150 E0.46897
G1 X179.4 Y140.6 E0.46897
G1 X160.6 Y140.6 E0.93794
G1 X160.6 Y159.4 E0.93794
G0 F7200 X160.2 Y159.8
;TYPE:WALL-OUTER
G1 F4800 X179.8 Y159.8 E0.97785
G1 X179.8 Y150 E0.48892
G1 X179.8 Y140.2 E0.48892
G1 X160.2 Y140.2 E0.97785
G1 X160.2 Y159.8 E0.97785
;MESH:NONMESH
G0 F600 X160.2 Y159.8 Z1.5
G0 F7200 X160.6 Y159.4
;TIME_ELAPSED:61.248676
;LAYER:4
;TYPE:WALL-INNER
;MESH:Cube
G1 F4800 X179.4 Y159.4 E0.93794
G1 X179.4 Y150 E0.46897
G1 X179.4 Y140.6 E0.46897
G1 X160.6 Y140.6 E0.93794
G1 X160.6 Y159.4 E0.93794
G0 F7200 X160.2 Y159.8
;TYPE:WALL-OUTER
G1 F4800 X179.8 Y159.8 E0.97785
G1 X179.8 Y150 E0.48892
G1 X179.8 Y140.2 E0.48892
G1 X160.2 Y140.2 E0.97785
G1 X160.2 Y159.8 E0.97785
;MESH:NONMESH
G0 F600 X160.2 Y159.8 Z1.8
G0 F7200 X160.6 Y159.4
;TIME_ELAPSED:63.686191
;LAYER:5
;TYPE:WALL-INNER
;MESH:Cube
G1 F4800 X170 Y159.4 E0.46897
G1 X179.4 Y159.4 E0.46897
G1 X179.4 Y140.6 E0.93794
